X:1
T:Rimsky-Korsakov Harmonic Exercises, Modulations (6)
T:Rimsky-Korsakov Harmonic Exercises 25
T:Realizations by S. Shchetnikov
T:"Practical Manual of Harmony" (1885)
C:Realizations by S. Shchetnikov
%%score { ( 1 2 ) | ( 3 4 ) }
L:1/8
Q:1/2=80
M:2/2
K:D
V:1 treble nm="Piano" snm="Pno."
V:2 treble 
V:3 bass 
V:4 bass 
V:1
"""_D:""^Example by Rimsky-Korsakov:""^Harmonisation of melodies with modulations" D4"" F4 | %1
"" A4"" F4 |"" G4"" A4 |""[Q:1/2=75] B4""[Q:1/2=65] c4 | %4
[M:9/8]""[Q:1/2=35] !fermata!d4 x""[Q:1/2=80]"_D:""_b:""_{" d4 |[M:2/2]"_b:" c4 B4 | %6
[Q:1/2=75] A4[Q:1/2=65] G4 |[M:9/8]""[Q:1/2=35]"_b:""_D:""_{" !fermata!F4 x""[Q:1/2=80] E4 | %8
[M:2/2]"""_D:""_A:""_{" F4 ^G4 |[Q:1/2=75] A4[Q:1/2=65] A4 | %10
[M:9/8]""[Q:1/2=35]"_A:""_D:""_{" !fermata!A4 x""[Q:1/2=80] A4 |[M:2/2]"""_D:""_b:""_{" B4 c4 | %12
 d4 c4 |""""""[Q:1/2=75]"_b:""_A:""_{" B8[Q:1/2=65] | %14
[M:9/8]""[Q:1/2=35]"_A:""_D:""_{" !fermata!A4 x[Q:1/2=80] d4 |[M:2/2] e8 | %16
[Q:1/2=70] c8[Q:1/2=50][Q:1/2=45] |[Q:1/2=35] !fermata!d8 |][K:G]"^Exercise 25.1"[Q:1/2=80] G4 G4 | %19
 d4 d4 | c4 d4 | B4 !fermata!G4 | B4 B4 | A4 A4 | G4 A4 | F4 !fermata!D4 | G4 G4 | c4 B4 | A4 A4 | %29
 !fermata!G8 |]"""^Realization 25.1""_G:" G4"" G4 |"" d4"" d4 |"" c4""[Q:1/2=75] d4 | %33
[M:9/8]""[Q:1/2=65] B4""[Q:1/2=35]"_G:""_e:""_{" !fermata!G4[Q:1/2=80] x |[M:2/2] B4 B4 | A4 A4 | %36
"""_e:""_D:""_{" G4""[Q:1/2=75] A4 | %37
[M:9/8]""[Q:1/2=65] F4""[Q:1/2=35]"_D:""_G:""_{" !fermata!D4[Q:1/2=80] x |[M:2/2] G4 G4 | c4 B4 | %40
[Q:1/2=70] A4[Q:1/2=55] A4 |[Q:1/2=35] !fermata!G8 |] %42
V:2
 A,4 D4 | E4 D4 | D4 D4 | D4 G4 |[M:9/8] F4 x"" F4 |[M:2/2]"" F4"" F4 |"" E4"" E4 | %7
[M:9/8]"" C4 x C4 |[M:2/2]"" D4"" D4 |"" E4"" F4 |[M:9/8]"" E4 x F4 |[M:2/2]"" D4"" F4 | %12
"" F4"" F4 |"" F4 E2 D2 |[M:9/8]"" C4 x"" A4 |[M:2/2]"""" G8 |"" E8 |"" D8 |][K:G] x8 | x8 | x8 | %21
 x8 | x8 | x8 | x8 | x8 | x8 | x8 | x8 | x8 |] D4 E4 | D4 F4 | G4 A4 |[M:9/8] G4"" D4 x | %34
[M:2/2]"" G4"" F4 |"" E4"" F4 |"" E4 E4 |[M:9/8] D4"" A,4 x |[M:2/2]"" D4"" G4 |"" A4"" G4 | %40
"" G4"" F4 |"" D8 |] %42
V:3
 F,4 A,4 | A,4 A,4 | G,4 F,4 | G,4 G,4 |[M:9/8] A,4 x B,4 |[M:2/2] ^A,4 B,4 | E,4 B,4 | %7
[M:9/8] ^A,4 x =A,4 |[M:2/2] A,4 B,4 | A,4 A,4 |[M:9/8] C4 x D4 |[M:2/2] B,4 ^A,4 | B,4 ^A,4 | %13
 B,4 ^G,4 |[M:9/8] A,4 x A,4 |[M:2/2] B,8 | A,4 A,2"" G,2 | F,8 |][K:G] z8 | z8 | z8 | z8 | z8 | %23
 z8 | z8 | z8 | z8 | z8 | z8 | z8 |] B,4 C4 | A,4 A,4 | C4 A,4 |[M:9/8] D4 B,4 x |[M:2/2] E4 ^D4 | %35
 E4 B,4 | B,4 A,4 |[M:9/8] A,4 F,4 x |[M:2/2] B,4 D4 | E4 E4 | E4 D2"" C2 | B,8 |] %42
V:4
 D,4 D,4 | C,4 D,4 | B,,4 A,,4 | G,,4 E,4 |[M:9/8] D,4 x B,,4 |[M:2/2] F,4 D,4 | C,4 E,4 | %7
[M:9/8] F,4 x A,4 |[M:2/2] D,4 B,,4 | C,4 D,4 |[M:9/8] A,4 x D,4 |[M:2/2] G,4 F,4 | B,,4 C,4 | %13
 D,4 E,4 |[M:9/8] A,4 x F,4 |[M:2/2] G,4 E,4 | A,4 A,,4 | D,8 |][K:G] x8 | x8 | x8 | x8 | x8 | x8 | %24
 x8 | x8 | x8 | x8 | x8 | x8 |] G,4 E,4 | F,4 D,4 | E,4 F,4 |[M:9/8] G,4 G,4 x |[M:2/2] E,4 B,,4 | %35
 ^C,4 ^D,4 | E,4 ^C,4 |[M:9/8] D,4 D,4 x |[M:2/2] G,,4 B,,4 | A,,4 B,,4 | C,4 D,4 | G,,8 |] %42

